X: 5
T: Batchelder's $1(R-54)
I: Batchelder's	R-54	F	reel
M: C|
R: reel
K: F
c2| "F"f2af "C7"efge| "F"f2c2- c2=Bc| "Bb"dcBA BAGF| "C7"EFGA Bcde|
    "F"f2af "C7"efge| "F"f2c2- c2=Bc| "Bb"dcBA BAGF| "C7"EFGE "F"F2:|
z2|:"F"A2cA cAcA| "Bb"B2dB dBdB| "F"A2cA cAcA| "C7"BAGF EFGB|
"F"A2cA cAcA| "Bb"B2dB dBdB| "F"Acfa "C7"bgeg| "F"f2a2 f4 :|
%%text 10/17/11  

#include "LeftHeader.h"
% ---------- set 32 ----------
% Green Fields of America (G) / Miss Thompson's (D) / Miss McLeod's (A)
%%text Set 32
%%vskip -1cm
%%scale .6
